svg/u1f1e8.svg

<svg viewBox="0 0 128 128" xmlns="http://www.w3.org/2000/svg">
  <path d="m111.21 107.69-11.29-22.23c-0.16-0.32-0.46-0.55-0.81-0.63s-0.71 0.01-0.99 0.23c-6.32 5.01-17.18 8.79-25.27 8.79-15.63 0-26.55-10.58-26.55-25.73s10.92-25.73 26.55-25.73c8.46 0 17.14 2.72 22.64 7.11 0.27 0.22 0.64 0.3 0.98 0.24 0.34-0.07 0.64-0.29 0.81-0.6l12.52-22.81c0.28-0.51 0.15-1.15-0.31-1.51-9.47-7.5-21.49-11.15-36.75-11.15-32.5 0-56.08 22.91-56.08 54.46 0 31.56 23.58 54.46 56.08 54.46 14.87 0 27.72-4.52 38.18-13.45 0.42-0.36 0.54-0.96 0.29-1.45z" fill="#40C0E7"/>
</svg>

<svg viewBox="0 0 128 128" xmlns="http://www.w3.org/2000/svg">
  <defs/>
  <path d="M111.21,107.69 L99.92,85.46 C99.76,85.14 99.46,84.91 99.11,84.83 C98.76,84.75 98.4,84.84 98.12,85.06 C91.8,90.07 80.94,93.85 72.85,93.85 C57.22,93.85 46.3,83.27 46.3,68.12 C46.3,52.97 57.22,42.39 72.85,42.39 C81.31,42.39 89.99,45.11 95.49,49.5 C95.76,49.72 96.13,49.8 96.47,49.74 C96.81,49.67 97.11,49.45 97.28,49.14 L109.8,26.33 C110.08,25.82 109.95,25.18 109.49,24.82 C100.02,17.32 88,13.67 72.74,13.67 C40.24,13.67 16.66,36.58 16.66,68.13 C16.66,99.69 40.24,122.59 72.74,122.59 C87.61,122.59 100.46,118.07 110.92,109.14 C111.34,108.78 111.46,108.18 111.21,107.69 Z" fill="#40C0E7"/>
</svg>
